X:1
T:There's Music in the Air
T:There's Music in the Air
T:George F. Root
%%score [ 1 2 3 4 ]
L:1/8
Q:1/4=80
M:4/4
K:Ab
V:1 treble nm="Sopran"
V:2 treble nm="Alt"
V:3 treble-8 nm="Tenor"
V:4 bass nm="Bass"
V:1
"^Allegretto" E2 | c2 c2 c2 c2 | (d4 c4) | B B B B c2 B2 | A6 E2 | c2 c2 c2 c2 | (d4 c4) | %7
w: 1.There's|mu- sic in the|air _|When the in- fant morn' is|nigh; And|faint its blush is|seen _|
w: 2.There's|mu- sic in the|air _|When the noon- tide's sul- try|beam Re-|flects a gold- en|light _|
w: 3.There's|mu- sic in the|air _|When the twi- lights gen- tle|sigh Is|lost on ev'- nings|breast, _|
 B B B B c2 B2 | A6 z2 || F- F A2 d2 F2 | E2 A2 c4 | c2 B2 G2 E2 | B2 A2 E4 | F2 A2 d2 F2 | %14
w: On the bright and laugh- ing|sky.|Man- y a harp's ec-|sta- tic sound,|With its thrill of|joy pro- found,|While we list en-|
w: On the dis- tant moun- tain|stream.|When _ be- neath some|grate- ful shade|Sor- row's ach- ing|head is laid,|Sweet- ly to the|
w: As its pen- sive beau- ties|die.|Then, _ oh, then the|loved ones gone|Make the pure, ce-|les- tial song,|An- gel voic- es|
 E2 A2 c2 c c | c2 B2 G2 E2 | A6 |] %17
w: chant- ed there to the|mu- sic in the|air.|
w: spi- rit there Comes the|mu- sic in the|air.|
w: greet us there In the|mus- ic in the|air.|
V:2
 E2 | E2 E2 E2 E2 | (F4 E4) | D D D D E2 D2 | C6 C2 | E2 E2 E2 E2 | (F4 E4) | D D D D E2 D2 | %8
w: 1.There's|mu- sic in the|air _|When the in- fant morn' is|nigh; And|faint its blush is|seen _|On the bright and laugh- ing|
w: 2.There's|mu- sic in the|air _|When the noon- tide's sul- try|beam Re-|flects a gold- en|light _|On the dis- tant moun- tain|
w: 3.There's|mu- sic in the|air _|When the twi- lights gen- tle|sigh Is|lost on ev'- nings|breast, _|As its pen- sive beau- ties|
 C6 z2 || D- D D2 F2 D2 | C2 C2 E4 | E2 D2 D2 D2 | D2 C2 (C D E2) | D2 D2 F2 D2 | C2 C2 E2 E E | %15
w: sky.|Man- y a harp's ec-|sta- tic sound,|With its thrill of|joy pro- found, _ _|While we list en-|chant- ed there to the|
w: stream.|When _ be- neath some|grate- ful shade|Sor- row's ach- ing|head is laid, _ _|Sweet- ly to the|spi- rit there Comes the|
w: die.|Then, _ oh, then the|loved ones gone|Make the pure, ce-|les- tial song, _ _|An- gel voic- es|greet us there In the|
 E2 D2 D2 D2 | C6 |] %17
w: mu- sic in the|air.|
w: mu- sic in the|air.|
w: mus- ic in the|air.|
V:3
 E2 | A2 A2 G2 F2 | A8 | G G G G A2 G2 | E6 E2 | A2 A2 G2 F2 | A8 | G G G G F2 G2 | A6 z2 || %9
w: 1.There's|mu- sic in the|air|When the in- fant morn' is|nigh; And|faint its blush is|seen|On the bright and laugh- ing|sky.|
w: 2.There's|mu- sic in the|air|When the noon- tide's sul- try|beam Re-|flects a gold- en|light|On the dis- tant moun- tain|stream.|
w: 3.There's|mu- sic in the|air|When the twi- lights gen- tle|sigh Is|lost on ev'- nings|breast,|As its pen- sive beau- ties|die.|
 A- A F2 A2 A2 | A2 E2 A4 | A2 G2 B2 G2 | E2 E2 (A G A2) | A2 F2 A2 A2 | A2 E2 A2 A A | %15
w: Man- y a harp's ec-|sta- tic sound,|With its thrill of|joy pro- found, _ _|While we list en-|chant- ed there to the|
w: When _ be- neath some|grate- ful shade|Sor- row's ach- ing|head is laid, _ _|Sweet- ly to the|spi- rit there Comes the|
w: Then, _ oh, then the|loved ones gone|Make the pure, ce-|les- tial song, _ _|An- gel voic- es|greet us there In the|
 A2 G2 B2 G2 | A6 |] %17
w: mu- sic in the|air.|
w: mu- sic in the|air.|
w: mus- ic in the|air.|
V:4
 E,2 | A,,2 A,,2 A,,2 A,,2 | ((D,4 A,,4)) | E, E, E, E, E,2 E,2 | A,,6 A,,2 | A,,2 A,,2 A,,2 A,,2 | %6
w: 1.There's|mu- sic in the|air _|When the in- fant morn' is|nigh; And|faint its blush is|
w: 2.There's|mu- sic in the|air _|When the noon- tide's sul- try|beam Re-|flects a gold- en|
w: 3.There's|mu- sic in the|air _|When the twi- lights gen- tle|sigh Is|lost on ev'- nings|
 ((D,4 A,,4)) | E, E, E, E, E,2 E,2 | A,,6 z2 || D,- D, D,2 D,2 D,2 | A,,2 A,,2 A,,4 | %11
w: seen _|On the bright and laugh- ing|sky.|Man- y a harp's ec-|sta- tic sound,|
w: light _|On the dis- tant moun- tain|stream.|When _ be- neath some|grate- ful shade|
w: breast, _|As its pen- sive beau- ties|die.|Then, _ oh, then the|loved ones gone|
 E,2 E,2 E,2 E,2 | A,,2 A,,2 (A,, B,, C,2) | D,2 D,2 D,2 D,2 | A,,2 A,,2 A,,2 A,, A,, | %15
w: With its thrill of|joy pro- found, _ _|While we list en-|chant- ed there to the|
w: Sor- row's ach- ing|head is laid, _ _|Sweet- ly to the|spi- rit there Comes the|
w: Make the pure, ce-|les- tial song, _ _|An- gel voic- es|greet us there In the|
 E,2 E,2 E,2 E,2 | A,,6 |] %17
w: mu- sic in the|air.|
w: mu- sic in the|air.|
w: mus- ic in the|air.|

